app/src/main/assets/symbols/transport/traffic_signal.svg

<?xml version="1.0" encoding="UTF-8"?>
<svg width="16" height="16" version="1.0" xmlns="http://www.w3.org/2000/svg">
<path id="a" d="m5.9 4.5v7c0 2.8 4.2 2.8 4.2 0v-7c0-2.8-4.2-2.8-4.2 0zm2.1-1.4c0.77 0 1.4 0.63 1.4 1.4s-0.63 1.4-1.4 1.4-1.4-0.63-1.4-1.4 0.63-1.4 1.4-1.4zm0 3.5c0.77 0 1.4 0.63 1.4 1.4s-0.63 1.4-1.4 1.4-1.4-0.63-1.4-1.4 0.63-1.4 1.4-1.4zm0 3.5c0.77 0 1.4 0.63 1.4 1.4s-0.63 1.4-1.4 1.4-1.4-0.63-1.4-1.4 0.63-1.4 1.4-1.4z"/>
</svg>

<?xml version="1.0" encoding="UTF-8" standalone="no"?>
<svg xmlns="http://www.w3.org/2000/svg" version="1.0" width="16" height="16">
 <metadata id="metadata10"/>
  <path
     d="m 5.9,4.5 0,7 c 0,2.8 4.2,2.8 4.2,0 l 0,-7 c 0,-2.8 -4.2,-2.8 -4.2,0 z M 8,3.1 C 8.77,3.1 9.4,3.73 9.4,4.5 9.4,5.27 8.77,5.9 8,5.9 7.23,5.9 6.6,5.27 6.6,4.5 6.6,3.73 7.23,3.1 8,3.1 Z M 8,6.6 C 8.77,6.6 9.4,7.23 9.4,8 9.4,8.77 8.77,9.4 8,9.4 7.23,9.4 6.6,8.77 6.6,8 6.6,7.23 7.23,6.6 8,6.6 Z m 0,3.5 c 0.77,0 1.4,0.63 1.4,1.4 0,0.77 -0.63,1.4 -1.4,1.4 -0.77,0 -1.4,-0.63 -1.4,-1.4 0,-0.77 0.63,-1.4 1.4,-1.4 z"
     id="path4688" />
</svg>
